icons/board-check.svg

<svg xmlns="http://www.w3.org/2000/svg" viewBox="0 0 24 24" fill="currentColor">
  <path d="M3.75 7.5c0-1.78579 1.46421-3.25 3.25-3.25.41421 0 .75-.33579.75-.75s-.33579-.75-.75-.75c-2.61421 0-4.75 2.13579-4.75 4.75v6c0 2.6142 2.13579 4.75 4.75 4.75h.09866l-1.22262 1.8339c-.22976.3447-.13663.8103.20801 1.0401.34465.2298.8103.1366 1.04007-.208l1.77732-2.666h6.19726l1.7773 2.666c.2298.3446.6955.4378 1.0401.208.3447-.2298.4378-.6954.208-1.0401L16.9015 18.25H17c2.6142 0 4.75-2.1358 4.75-4.75v-6c0-.41421-.3358-.75-.75-.75s-.75.33579-.75.75v6c0 1.7858-1.4642 3.25-3.25 3.25h-1.4871a.607575.607575 0 0 0-.027 0H8.5143c-.00903-.0002-.01805-.0002-.02707 0H7c-1.78579 0-3.25-1.4642-3.25-3.25v-6Zm12.3719-.86172c.2974-.28836.3047-.76317.0164-1.06054-.2884-.29736-.7632-.30466-1.0606-.01631l-2.8624 2.77571-.8155-1.08728c-.2485-.33137-.7186-.39853-1.0499-.15-.3314.24853-.39858.71863-.1501 1.05l1.232 1.64265.0377.03769c.2119.2119.4886.2947.7178.2947.116 0 .2954-.0209.4728-.13004.0961-.05915.1866-.14304.2562-.24804l3.2056-3.10854Z"/>
</svg>

<svg width="24" height="24" viewBox="0 0 24 24" fill="none" xmlns="http://www.w3.org/2000/svg">
<path fill-rule="evenodd" clip-rule="evenodd" d="M3.75 7.5C3.75 5.71421 5.21421 4.25 7 4.25C7.41421 4.25 7.75 3.91421 7.75 3.5C7.75 3.08579 7.41421 2.75 7 2.75C4.38579 2.75 2.25 4.88579 2.25 7.5V13.5C2.25 16.1142 4.38579 18.25 7 18.25H7.09866L5.87604 20.0839C5.64628 20.4286 5.73941 20.8942 6.08405 21.124C6.4287 21.3538 6.89435 21.2606 7.12412 20.916L8.90144 18.25H15.0987L16.876 20.916C17.1058 21.2606 17.5715 21.3538 17.9161 21.124C18.2608 20.8942 18.3539 20.4286 18.1241 20.0839L16.9015 18.25H17C19.6142 18.25 21.75 16.1142 21.75 13.5V7.5C21.75 7.08579 21.4142 6.75 21 6.75C20.5858 6.75 20.25 7.08579 20.25 7.5V13.5C20.25 15.2858 18.7858 16.75 17 16.75H15.5129C15.5039 16.7498 15.4949 16.7498 15.4859 16.75H8.5143C8.50527 16.7498 8.49625 16.7498 8.48723 16.75H7C5.21421 16.75 3.75 15.2858 3.75 13.5V7.5ZM16.1219 6.63828C16.4193 6.34992 16.4266 5.87511 16.1383 5.57774C15.8499 5.28038 15.3751 5.27308 15.0777 5.56143L12.2153 8.33714L11.3998 7.24986C11.1513 6.91849 10.6812 6.85133 10.3499 7.09986C10.0185 7.34839 9.95132 7.81849 10.1998 8.14986L11.4318 9.79251L11.4695 9.8302C11.6814 10.0421 11.9581 10.1249 12.1873 10.1249C12.3033 10.1249 12.4827 10.104 12.6601 9.99486C12.7562 9.93571 12.8467 9.85182 12.9163 9.74682L16.1219 6.63828Z" fill="black"/>
</svg>
